X:185
T:Dear Christians, One and All Rejoice
%%stretchlast false
M:4/4
L:1/4
K:Eb clef=C1
"^I"[EGBe]2 [EGBe] "^V¹"[DFB] | "^vi"[CEGe] "^IV"[A,Eca] "^I²"[B,EBg] "^V"[B,DBf] | "^i"[E,EBe]2 [EB] "^Imaj7²"[B,Gde] | "^v"[F,Bf] "^IVmaj7³"[G,cea] "^iii¹"[B,Bdg] "^ii¹"[A,Fcf] | "^v"[B,FBc] "^V"[E,FBd] "^I"[E,GBe] [EGBe] | [EGBe] [EGBe] [DFGe] "^iii"[CFGB] | "^IV"[A,Ece] "^i"[B,EBa] "^I²"[B,EBg] "^V"[E,DBf] | "^i"[E,EBe] [EBe] "^V"[B,d] "^I"[F,Gef] | "^I¹"[G,Bef] "^♯iii°"[B,cda] [A,Bcg] "^v"[B,FBf] | "^vi"[E,FBc] "^V"[E,FBd] "^I"[EGBe] "^IVmaj7"[A,Gce] | "^i"[EB] "^vi"[CGe] "^i"[DEda] "^vi¹"[Ecg] | "^ii7³"[EFca] "^V"[B,Fdb] "^iii¹"[B,Gdb] "^II"[EFe=a] | "^i"[A,Feb] "^v¹"[_DF_db] "^♯vi"[B,_d] "^vi7"[CGcb] | "^IV²"[EABc'] "^♯iii"[B,FBa] "^I"[E,GBb] "^i"[E,EBb]/ [E,EBa]/ | "^I"[EBg] "^V"[B,DBf] "^I¹"[G,EBe] "^IV"[A,Ece] | "^♯iii"[F,A] "^I"[E,EBg] "^V"[B,DBf] "^i"[E,EB] | [E,CBe] [E,CBf] "^I"[E,EBg] "^vii"[Df] | "^i"[Ee]4 |]
